priv/static/svgs/icons_new/sport-rocket-league.svg

<svg width="32" height="32" viewBox="0 0 32 32" fill="none" xmlns="http://www.w3.org/2000/svg">
<path d="M26.8758 23.0992V19.2619C26.8758 18.8765 26.8078 18.4953 26.6719 18.1347L24.5265 12.6814C24.1484 11.72 23.201 11.0859 22.1474 11.0859H17.0834M26.8758 23.0992C26.8758 23.555 26.4935 23.9279 26.0261 23.9279H8.18303C7.71571 23.9279 7.33336 23.555 7.33336 23.0992M26.8758 23.0992L26.8757 25.1712C26.8757 25.627 26.4933 26 26.026 26H24.7515C24.2842 26 23.9018 25.627 23.9018 25.1712V23.928M7.87503 17.209L7.53728 18.1347C7.40133 18.4953 7.33336 18.8765 7.33336 19.2619V23.0992M7.33336 23.0992V25.1712C7.33336 25.627 7.71571 26 8.18303 26H9.45754C9.92486 26 10.3072 25.627 10.3072 25.1712V23.928M11.6666 17.2981H24.0632C24.5178 17.2981 24.9724 17.2276 25.4057 17.0867L26.026 16.8837M20.5034 22.2709H13.7061M8.73406 7.77927C8.73406 7.77927 7.99 9.42038 7.87665 10.4619C7.87665 10.4619 8.91212 11.8188 9.86658 12.6236M8.73406 7.77927C10.3034 7.21128 11.6614 7.14816 11.6614 7.14816M8.73406 7.77927C7.88225 6.9325 6.78209 6.58539 6.78209 6.58539M9.86658 12.6236L12.7611 12.0081C12.7611 12.0081 13.4728 10.7931 13.5881 9.30104M9.86658 12.6236C9.59707 13.1816 9.21884 15.0431 9.21884 15.0431M13.5881 9.30104C13.5881 9.30104 12.8263 7.93704 11.6614 7.14816M13.5881 9.30104L15.5367 8.81276M11.6614 7.14816L12.4549 5.41239M15.5367 8.81276C15.5367 8.81276 15.5286 7.30594 14.9867 6.46178C14.9867 6.46178 14.5246 5.74384 12.4549 5.41239M15.5367 8.81276C15.5367 8.81276 16.4255 9.56012 16.6395 11.0878C16.6395 11.0878 16.2404 13.886 13.7598 14.2433M12.4549 5.41239C11.7539 4.28139 10.4272 4.0102 10.4272 4.0102M8.00508 4.29183C8.00508 4.29183 7.05184 5.38606 6.78209 6.58539M6.78209 6.58539C6.78209 6.58539 5.19813 7.39823 4.72358 8.45972C4.72358 8.45972 4.64672 9.58575 5.31538 10.8674L7.87666 10.4608M5.31537 10.8686C5.31537 10.8686 4.59271 12.1187 4.79776 13.2443C4.79776 13.2443 5.42313 14.8538 6.69501 15.4534M6.69501 15.4534C6.69501 15.4534 7.90293 15.5271 9.21884 15.0431M6.69501 15.4534C6.69501 15.4534 6.50115 16.0565 6.62642 16.8769M9.21884 15.0431C9.21884 15.0431 10.7077 16.0005 11.5707 16.0633M3.51955 8.27443C3.51955 8.27443 3.95397 8.23694 4.7209 8.33161M3.43564 13.2521L4.76128 13.1631M11.5707 16.0633C11.5707 16.0633 13.2639 15.348 13.7598 14.2433M11.5707 16.0633C11.5707 16.0633 11.603 17.1213 11.4897 17.5918M13.7598 14.2433C13.7598 14.2433 13.2099 12.6129 12.7626 12.0079M15.4411 13.4374C15.4411 13.4374 15.8059 14.0398 15.6021 15.0832M11.582 21.0273H9.8827C9.17747 21.0273 8.60819 20.472 8.60819 19.7841C8.60819 19.5562 8.79936 19.3697 9.03302 19.3697H10.7324C11.4376 19.3697 12.0069 19.925 12.0069 20.6129C12.0069 20.8408 11.8157 21.0273 11.582 21.0273ZM24.3265 21.0273H22.6272C22.3935 21.0273 22.2024 20.8408 22.2024 20.6129C22.2024 19.925 22.7716 19.3697 23.4769 19.3697H25.1762C25.4099 19.3697 25.601 19.5562 25.601 19.7841C25.601 20.472 25.0318 21.0273 24.3265 21.0273ZM26.451 16.4694H27.9379C28.5242 16.4694 29 16.0053 29 15.4334C29 15.0895 28.7154 14.8118 28.3627 14.8118H27.0882C26.7356 14.8118 26.451 15.0895 26.451 15.4334V16.4694ZM17.0834 10.8686C17.0834 14.662 13.9307 17.7372 10.0417 17.7372C6.15268 17.7372 3 14.662 3 10.8686C3 7.07517 6.15268 4 10.0417 4C13.9307 4 17.0834 7.07517 17.0834 10.8686Z" stroke="black" stroke-linecap="round"/>
</svg>

<svg width="32" height="32" viewBox="0 0 32 32" fill="none" xmlns="http://www.w3.org/2000/svg">
  <symbol id="item" viewBox="0 0 32 32" stroke-width="1" fill="none">
    <path d="M26.876 23.1v-3.838c0-.386-.068-.767-.204-1.127l-2.146-5.454c-.378-.961-1.325-1.595-2.379-1.595h-5.064m9.793 12.013a.842.842 0 0 1-.85.829H8.183a.842.842 0 0 1-.85-.829m19.543 0v2.072a.842.842 0 0 1-.85.829h-1.274a.842.842 0 0 1-.85-.829v-1.243M7.875 17.209l-.338.926c-.136.36-.204.741-.204 1.127v3.837m0 0v2.072c0 .456.383.829.85.829h1.275c.467 0 .85-.373.85-.829v-1.243m1.359-6.63h12.396c.455 0 .91-.07 1.343-.211l.62-.203m-5.523 5.387h-6.797M8.734 7.779s-.744 1.641-.857 2.683c0 0 1.035 1.357 1.99 2.162M8.734 7.779c1.57-.568 2.927-.63 2.927-.63m-2.927.63c-.852-.846-1.952-1.194-1.952-1.194m3.085 6.039 2.894-.616s.712-1.215.827-2.707m-3.721 3.323c-.27.558-.648 2.42-.648 2.42m4.37-5.743s-.763-1.364-1.928-2.153m1.927 2.153 1.949-.488M11.66 7.148l.794-1.736m3.082 3.4s-.008-1.506-.55-2.35c0 0-.462-.718-2.532-1.05m3.082 3.4s.888.748 1.103 2.276c0 0-.4 2.798-2.88 3.155m-1.305-8.83c-.701-1.132-2.028-1.403-2.028-1.403m-2.422.282s-.953 1.094-1.223 2.293m0 0s-1.584.813-2.058 1.875c0 0-.077 1.126.591 2.407l2.562-.406m-2.562.408s-.722 1.25-.517 2.375c0 0 .625 1.61 1.897 2.21m0 0s1.208.073 2.524-.41m-2.524.41s-.194.602-.069 1.423m2.593-1.834s1.489.957 2.352 1.02M3.52 8.274s.434-.037 1.2.058m-1.284 4.92 1.325-.089m6.81 2.9s1.693-.715 2.189-1.82m-2.19 1.82s.033 1.058-.08 1.529m2.27-3.349s-.55-1.63-.997-2.235m2.678 1.43s.365.602.161 1.645m-4.02 5.944h-1.7c-.705 0-1.274-.555-1.274-1.243 0-.228.191-.414.425-.414h1.7c.705 0 1.274.555 1.274 1.243a.421.421 0 0 1-.425.414Zm12.744 0h-1.699a.42.42 0 0 1-.425-.414c0-.688.57-1.243 1.275-1.243h1.7a.42.42 0 0 1 .424.414c0 .688-.57 1.243-1.274 1.243Zm2.125-4.558h1.487A1.05 1.05 0 0 0 29 15.433a.629.629 0 0 0-.637-.621h-1.275a.629.629 0 0 0-.637.621v1.036Zm-9.368-5.6c0 3.793-3.152 6.868-7.041 6.868C6.152 17.737 3 14.662 3 10.87 3 7.075 6.153 4 10.042 4s7.041 3.075 7.041 6.869Z" stroke="currentColor" stroke-linecap="round"/>
  </symbol>
</svg>
